img/sprite/message.svg

<svg width="20" height="20" viewBox="0 0 20 20" fill="none" xmlns="http://www.w3.org/2000/svg">
<path fill-rule="evenodd" clip-rule="evenodd" d="M13.8824 1.66602C16.6574 1.66602 18.7499 3.93018 18.7499 6.93268V12.656C18.7499 14.1927 18.2066 15.581 17.2191 16.566C16.3333 17.4485 15.1841 17.916 13.8958 17.916H5.68492C4.39909 17.916 3.25075 17.4493 2.36409 16.566C1.37659 15.581 0.833252 14.1927 0.833252 12.656V6.93268C0.833252 3.93018 2.92575 1.66602 5.70075 1.66602H13.8824ZM13.8824 2.91602H5.70075C3.60492 2.91602 2.08325 4.60518 2.08325 6.93268V12.656C2.08325 13.8585 2.49659 14.9327 3.24659 15.6802C3.89325 16.326 4.73742 16.666 5.68742 16.666H13.8824C13.8841 16.6643 13.8908 16.666 13.8958 16.666C14.8466 16.666 15.6899 16.326 16.3366 15.6802C17.0874 14.9327 17.4999 13.8585 17.4999 12.656V6.93268C17.4999 4.60518 15.9783 2.91602 13.8824 2.91602ZM15.1958 6.77335C15.4133 7.04085 15.3724 7.43418 15.1049 7.65252L11.4016 10.6625C10.9333 11.0342 10.3733 11.22 9.81409 11.22C9.25659 11.22 8.70075 11.0358 8.23575 10.6675L4.49825 7.65418C4.22909 7.43752 4.18742 7.04335 4.40325 6.77502C4.62075 6.50752 5.01409 6.46502 5.28242 6.68085L9.01658 9.69085C9.48575 10.0625 10.1466 10.0625 10.6191 9.68752L14.3158 6.68252C14.5841 6.46335 14.9774 6.50502 15.1958 6.77335Z" fill="#B0B0B2"/>
</svg>

<svg width="20" height="20" fill="none" xmlns="http://www.w3.org/2000/svg"><path fill-rule="evenodd" clip-rule="evenodd" d="M13.882 1.666c2.775 0 4.868 2.264 4.868 5.267v5.723c0 1.537-.543 2.925-1.53 3.91-.887.883-2.036 1.35-3.324 1.35H5.685c-1.286 0-2.434-.467-3.32-1.35-.988-.985-1.532-2.373-1.532-3.91V6.933c0-3.003 2.093-5.267 4.868-5.267h8.181Zm0 1.25H5.701c-2.096 0-3.618 1.69-3.618 4.017v5.723c0 1.202.414 2.277 1.164 3.024.646.646 1.49.986 2.44.986h8.195c.002-.002.009 0 .014 0 .95 0 1.794-.34 2.44-.986.751-.747 1.164-1.822 1.164-3.024V6.933c0-2.328-1.522-4.017-3.618-4.017Zm1.314 3.857a.626.626 0 0 1-.091.88l-3.703 3.01a2.535 2.535 0 0 1-3.166.005L4.498 7.654a.626.626 0 0 1 .784-.973l3.735 3.01c.469.371 1.13.371 1.602-.003l3.697-3.005a.624.624 0 0 1 .88.09Z" fill="#B0B0B2"/></svg>
